X: 15314
T: Girls Will You Take Him?
R: reel
M: 4/4
K: Dmixolydian
|:D3 E FGAF|D2 AF GECE|D3 E FGAB|1 cAdB cAGE:|2 cAdB cAGB||
Add^c dfed|AcBd cAGB|Adde fded|cAdB cAGE|
Add^c dfed|AcBd cdeg|agef ({a}g)fed|cAdB ({d}c)AGE||

